icon/lg/armory-icon.svg

<?xml version="1.0" encoding="UTF-8"?>
<svg viewBox="0 0 256 242" version="1.1" xmlns="http://www.w3.org/2000/svg" preserveAspectRatio="xMidYMid" height="1em" width="1em">
  <g>
    <path d="M182.015383,66.9131415 L182.015383,29.9266234 L219.14175,29.9266234 L219.14175,66.9131415 L182.015383,66.9131415 Z M231.643534,52.7084303 L255.901283,52.7084303 L255.901283,29.8390439 L231.643534,29.8390439 L231.643534,52.7084303 Z M208.238799,18.4587715 L230.049511,18.4587715 L230.049511,0 L208.238799,0 L208.238799,18.4587715 Z M242.285962,16.0819753 L256,16.0819753 L256,3.86830545 L242.285962,3.86830545 L242.285962,16.0819753 Z" fill="#00BCDD"/>
    <path d="M24.5026428,73.2462657 C24.2064925,93.5047199 24.3779812,113.341729 27.8431932,133.008516 C30.5268973,148.241907 35.0058546,162.770991 44.0491972,175.569368 C56.9855245,193.877533 74.4837058,206.350018 94.8427752,215.226934 C97.8074425,216.519744 100.312697,216.775395 103.153968,215.08582 C105.578225,213.644302 108.238515,212.597018 110.799456,211.384573 C143.317775,195.987288 163.806568,171.472622 169.720082,135.36 C173.067594,114.919299 173.639012,94.4077253 173.421329,73.8037623 C173.41943,73.6379688 173.209974,73.4740736 173.028993,73.2089305 C146.036283,70.6157167 121.860165,60.8047879 100.691111,43.7217233 C77.8369122,60.5048408 52.6824855,70.5556007 24.5026428,73.2462657 M196.874789,66.9132048 C196.936804,76.9956048 197.224728,87.0830671 197.014638,97.1597718 C196.543202,119.791225 194.66442,142.244862 186.979065,163.804986 C176.868822,192.166442 157.493124,212.679915 131.7426,227.34695 C122.123409,232.825098 111.637916,236.801612 101.471354,241.290694 C100.08046,241.905143 98.0605624,242.03107 96.6443564,241.520401 C71.5057497,232.461871 49.1508296,219.152824 31.6399923,198.572275 C16.5154432,180.796927 7.73787651,160.14234 4.52135489,137.204612 C2.73053133,124.434711 1.90156353,111.530024 0.610019051,98.6892491 C0.556231064,98.155166 0.210089549,97.6501917 1.24003492e-14,97.1312958 C1.24003492e-14,89.3472249 1.24003492e-14,81.563154 1.24003492e-14,73.7784503 C0.383476706,69.9057153 0.803023004,66.0361442 1.14093812,62.1596124 C1.49404043,58.1071622 1.76930837,54.048384 2.10279389,49.6744714 C41.0326404,51.6564006 73.8154691,38.5201086 100.799953,10.4896066 C121.905726,36.0990164 149.322412,48.3822942 182.015383,49.6858618 C186.517122,49.6858618 191.01886,49.6858618 195.701579,49.6858618 C196.109102,55.6677188 196.491946,61.2901454 196.874789,66.9132048" fill="#0C4062"/>
    <path d="M100.690225,78.2048853 C106.980889,85.9838938 112.940598,93.3205752 118.863604,100.686998 C128.945371,113.225294 138.970186,125.809152 149.104476,138.304418 C150.724444,140.301534 151.215496,142.16513 150.442848,144.647603 C148.246399,151.700158 143.842745,160.211948 140.244645,163.641091 C127.130501,147.375604 114.035341,131.13353 100.688327,114.57822 C87.4824271,130.987353 74.4543439,147.176272 61.1212511,163.744237 C60.030937,162.157808 58.9640365,160.908661 58.235051,159.48676 C56.1271947,155.376725 54.28638,151.128107 52.0949941,147.065532 C49.8738667,142.949169 50.7502945,139.650383 53.6213074,136.151633 C67.2284024,119.569113 80.6760319,102.856236 94.1831446,86.1920849 C96.2207601,83.6773383 98.2716644,81.1727165 100.690225,78.2048853" fill="#00BCDD"/>
  </g>
</svg>

<svg width="256" height="242" xmlns="http://www.w3.org/2000/svg" preserveAspectRatio="xMidYMid"><path d="M182.015 66.913V29.927h37.127v36.986h-37.127Zm49.629-14.205H255.9V29.84h-24.257v22.87Zm-23.405-34.25h21.81V0h-21.81v18.459Zm34.047-2.376H256V3.868h-13.714v12.214Z" fill="#00BCDD"/><path d="M24.503 73.246c-.297 20.259-.125 40.096 3.34 59.763 2.684 15.233 7.163 29.762 16.206 42.56 12.937 18.309 30.435 30.781 50.794 39.658 2.964 1.293 5.47 1.548 8.311-.141 2.424-1.442 5.085-2.489 7.645-3.701 32.519-15.398 53.008-39.912 58.921-76.025 3.348-20.44 3.919-40.952 3.701-61.556-.002-.166-.211-.33-.392-.595-26.993-2.593-51.169-12.404-72.338-29.487-22.854 16.783-48.009 26.834-76.188 29.524m172.372-6.333c.062 10.083.35 20.17.14 30.247-.472 22.631-2.35 45.085-10.036 66.645-10.11 28.361-29.486 48.875-55.236 63.542-9.62 5.478-20.105 9.455-30.272 13.944-1.39.614-3.41.74-4.827.23-25.138-9.06-47.493-22.368-65.004-42.949-15.125-17.775-23.902-38.43-27.119-61.367-1.79-12.77-2.62-25.675-3.911-38.516-.054-.534-.4-1.039-.61-1.558V73.778c.383-3.872.803-7.742 1.14-11.618.354-4.053.63-8.112.963-12.486C41.033 51.656 73.815 38.52 100.8 10.49c21.106 25.609 48.522 37.892 81.215 39.196h13.687l1.173 17.227" fill="#0C4062"/><path d="M100.69 78.205c6.29 7.779 12.25 15.116 18.174 22.482 10.081 12.538 20.106 25.122 30.24 37.617 1.62 1.998 2.111 3.861 1.339 6.344-2.197 7.052-6.6 15.564-10.198 18.993l-39.557-49.063-39.567 49.166c-1.09-1.586-2.157-2.835-2.886-4.257-2.108-4.11-3.949-8.359-6.14-12.421-2.221-4.117-1.345-7.416 1.526-10.914 13.607-16.583 27.055-33.296 40.562-49.96 2.038-2.515 4.089-5.02 6.507-7.987" fill="#00BCDD"/></svg>
